src/pos-icons/card-bulleted-outline.svg

<svg height="24" viewBox="0 0 24 24" width="24" xmlns="http://www.w3.org/2000/svg"><path d="m12 15h-2v-2h2zm6 0h-4v-2h4zm-10-4h-2v-2h2zm10 0h-8v-2h8zm2 9h-16a2 2 0 0 1 -2-2v-12a2 2 0 0 1 2-2h16a2 2 0 0 1 2 2v12a2 2 0 0 1 -2 2m-16-14v12h16v-12z"/></svg>

<?xml version="1.0" encoding="UTF-8"?><!DOCTYPE svg PUBLIC "-//W3C//DTD SVG 1.1//EN" "http://www.w3.org/Graphics/SVG/1.1/DTD/svg11.dtd"><svg xmlns="http://www.w3.org/2000/svg" xmlns:xlink="http://www.w3.org/1999/xlink" version="1.1" id="mdi-card-bulleted-outline" width="24" height="24" viewBox="0 0 24 24"><path d="M12,15H10V13H12V15M18,15H14V13H18V15M8,11H6V9H8V11M18,11H10V9H18V11M20,20H4A2,2 0 0,1 2,18V6A2,2 0 0,1 4,4H20A2,2 0 0,1 22,6V18A2,2 0 0,1 20,20M4,6V18H20V6H4Z" /></svg>
